public/assets/images/logo.svg

<svg width="293" height="65" viewBox="0 0 293 65" fill="none" xmlns="http://www.w3.org/2000/svg">
<g clip-path="url(#clip0_101_5015)">
<path d="M37.0531 30.3943C38.1386 34.4177 34.4609 38.1069 30.4336 37.0349L17.2296 33.5195L4.02552 30.0041C-0.00175291 28.9321 -1.35963 23.9023 1.58212 20.9509L11.2283 11.2739L20.8763 1.59488C23.8181 -1.35653 28.8517 -0.0160308 29.9372 4.00738L33.4952 17.1999L37.0531 30.3923V30.3943Z" fill="url(#paint0_linear_101_5015)"/>
<path d="M42.8781 43.0809L37.479 48.4799L42.8781 53.879L48.2771 48.48L42.8781 43.0809Z" fill="#5793F9"/>
<path d="M42.86 53.8636L37.4609 59.2627L42.86 64.6617L48.259 59.2627L42.86 53.8636Z" fill="#5793F9"/>
<path d="M42.8688 53.8747L37.4697 59.2737L42.8688 64.6728L48.2678 59.2737L42.8688 53.8747Z" fill="#5793F9"/>
<path d="M53.6583 53.8648L48.2593 59.2638L53.6583 64.6629L59.0574 59.2638L53.6583 53.8648Z" fill="#5793F9"/>
<path d="M64.4597 43.0633L59.0591 37.6627L53.6585 43.0633L53.6662 43.071L48.2752 37.6801L53.6701 32.2853C53.0346 31.6536 52.2272 31.163 51.2595 30.9023L38.0612 27.3656L24.863 23.8289C20.8376 22.7511 17.1541 26.4346 18.232 30.4599L21.7686 43.6582L25.3053 56.8565C25.5641 57.8242 26.0547 58.6316 26.6883 59.267L26.6767 59.2786L32.0773 64.6792L37.4779 59.2786L32.0773 53.878L42.8766 43.0787L48.2772 48.4794L53.6778 43.0787L59.061 48.462L64.4616 43.0614L64.4597 43.0633Z" fill="url(#paint1_linear_101_5015)"/>
<path d="M32.066 43.1293L26.667 48.5284L32.066 53.9274L37.4651 48.5284L32.066 43.1293Z" fill="#88FCFF"/>
<path opacity="0.33" d="M37.053 30.3943L36.0949 26.8402L24.8649 23.8309C20.8396 22.7531 17.1561 26.4366 18.2339 30.4619L19.1939 34.043L30.4336 37.035C34.4608 38.107 38.1385 34.4177 37.053 30.3943Z" fill="#085DFF"/>
<path d="M75.4588 63.4594C75.0029 63.0878 74.6393 62.6178 74.3961 62.0856C74.1529 61.5533 74.0364 60.973 74.0558 60.3893C74.0351 59.5242 74.2307 58.6673 74.6253 57.8948C75.0049 57.1802 75.7384 56.4237 76.8256 55.6255L91.7488 44.4784C92.0169 44.2907 92.2535 44.0628 92.4504 43.8029C92.5931 43.5931 92.6664 43.3445 92.66 43.0917C92.66 42.5169 92.2174 42.2295 91.3321 42.2295H77.4417C76.7776 42.2478 76.1232 42.0696 75.5623 41.7178C75.3191 41.5716 75.1191 41.3644 74.9828 41.1174C74.8464 40.8703 74.7785 40.592 74.7858 40.3107C74.7736 40.0253 74.8373 39.7417 74.9703 39.4881C75.1034 39.2346 75.3012 39.0198 75.5442 38.8652C76.1098 38.5089 76.7714 38.3305 77.4417 38.3535H92.5099C94.1545 38.3535 95.4385 38.7227 96.3617 39.4613C97.285 40.1998 97.7466 41.2437 97.7466 42.5928C97.7812 43.4797 97.5851 44.3606 97.1771 45.1512C96.7975 45.8335 96.064 46.5712 94.9768 47.3643L80.0613 58.5063C79.7897 58.6976 79.5518 58.9318 79.3572 59.1996C79.2145 59.4303 79.1426 59.6969 79.1501 59.9671C79.1501 60.4942 79.7429 60.7551 80.9337 60.7551H95.391C96.0549 60.7376 96.7091 60.9158 97.2703 61.2668C97.5138 61.4129 97.7139 61.62 97.8502 61.8671C97.9866 62.1142 98.0545 62.3926 98.0469 62.674C98.0588 62.959 97.9951 63.2421 97.8621 63.4953C97.729 63.7484 97.5313 63.9627 97.2884 64.1169C96.7227 64.4729 96.0613 64.6513 95.391 64.6286H79.3003C77.6833 64.6286 76.4054 64.2414 75.4666 63.4671" fill="white"/>
<path d="M107.899 63.2906C105.828 62.2202 104.129 60.5608 103.022 58.5268C101.904 56.4954 101.345 54.151 101.345 51.4937C101.345 48.8363 101.901 46.4919 103.014 44.4605C104.122 42.427 105.821 40.7679 107.891 39.6967C110.029 38.5591 112.578 37.9902 115.538 37.9902C118.498 37.9902 121.047 38.5591 123.185 39.6967C125.255 40.7679 126.954 42.427 128.062 44.4605C129.176 46.5073 129.734 48.8516 129.734 51.4937C129.734 54.1357 129.176 56.48 128.062 58.5268C126.954 60.5608 125.256 62.2202 123.185 63.2906C121.047 64.43 118.498 64.9988 115.538 64.9971C112.578 64.9954 110.029 64.4265 107.891 63.2906M122.255 58.4884C123.85 56.7828 124.647 54.4512 124.647 51.4937C124.647 48.5361 123.822 46.1977 122.17 44.4784C120.51 42.7728 118.176 41.92 115.168 41.92C112.407 41.92 110.262 42.789 108.735 44.527C107.208 46.2651 106.442 48.5847 106.437 51.486C106.437 54.435 107.234 56.7666 108.828 58.4807C110.423 60.1949 112.662 61.052 115.546 61.052C118.433 61.052 120.672 60.1949 122.263 58.4807" fill="white"/>
<path d="M134.295 64.36C134.065 64.1516 133.885 63.8956 133.767 63.6104C133.649 63.3251 133.596 63.0176 133.612 62.7098V49.5799C133.612 45.9555 134.662 43.1173 136.762 41.0655C138.862 39.0136 141.785 37.9902 145.53 37.9953C147.984 37.9953 150.109 38.4576 151.905 39.382C153.663 40.2704 155.1 41.6719 156.024 43.3962C156.971 45.1462 157.446 47.2091 157.447 49.5851V62.715C157.463 63.0228 157.41 63.3302 157.292 63.6155C157.174 63.9007 156.994 64.1567 156.764 64.3651C156.235 64.7567 155.591 64.9668 154.93 64.9635C154.268 64.9603 153.627 64.7439 153.101 64.3472C152.87 64.1428 152.687 63.8906 152.566 63.6085C152.445 63.3263 152.388 63.0213 152.4 62.715V56.6003H138.659V62.715C138.671 63.0213 138.614 63.3263 138.493 63.6085C138.372 63.8906 138.189 64.1428 137.958 64.3472C137.433 64.7439 136.791 64.9603 136.13 64.9635C135.468 64.9668 134.824 64.7567 134.295 64.3651M152.4 52.7371V49.4674C152.4 46.9669 151.823 45.0848 150.67 43.8209C149.518 42.557 147.804 41.9234 145.53 41.92C140.949 41.92 138.659 44.4332 138.659 49.4597V52.7243L152.4 52.7371Z" fill="white"/>
<path d="M168.682 63.178C167.517 61.9653 166.492 59.9587 165.607 57.158L160.331 40.5768C160.229 40.2749 160.178 39.9587 160.178 39.6404C160.178 38.5403 160.963 37.9902 162.531 37.9902C163.308 37.9902 163.916 38.1386 164.343 38.4405C164.808 38.8126 165.135 39.3263 165.273 39.9014L170.509 56.787C170.994 58.3033 171.435 59.4026 171.832 60.0849C172.229 60.7671 172.646 61.104 173.082 61.0955C173.512 61.0955 173.931 60.7577 174.335 60.0849C174.739 59.412 175.182 58.3093 175.663 56.7819L180.9 39.8963C181.039 39.3209 181.366 38.8072 181.832 38.4354C182.249 38.1335 182.849 37.9851 183.644 37.9851C185.213 37.9851 185.997 38.5352 185.997 39.6353C185.998 39.9534 185.948 40.2696 185.847 40.5717L180.556 57.158C179.67 59.9604 178.645 61.967 177.48 63.178C176.905 63.7538 176.22 64.211 175.465 64.5231C174.709 64.8351 173.899 64.9958 173.08 64.9958C172.261 64.9958 171.45 64.8351 170.695 64.5231C169.94 64.211 169.254 63.7538 168.679 63.178" fill="white"/>
<path d="M192.204 63.1217C191.141 62.1205 190.61 60.7202 190.61 58.9207V43.9155C190.61 42.1656 191.122 40.8011 192.147 39.822C193.173 38.843 194.595 38.3552 196.416 38.3586H208.22C208.979 38.3586 209.561 38.5292 209.965 38.8703C210.17 39.05 210.332 39.2735 210.437 39.5239C210.543 39.7743 210.589 40.0451 210.573 40.3158C210.586 40.5823 210.536 40.8481 210.428 41.0923C210.319 41.3365 210.154 41.5524 209.947 41.7229C209.449 42.0876 208.838 42.2686 208.22 42.2346H197.296C197.073 42.2237 196.85 42.2616 196.643 42.3457C196.437 42.4297 196.251 42.5578 196.1 42.7207C195.791 43.1022 195.636 43.5836 195.665 44.0716V49.2857H205.342C206.103 49.2857 206.685 49.4562 207.089 49.7974C207.294 49.9768 207.455 50.1998 207.561 50.4498C207.666 50.6997 207.713 50.97 207.697 51.2403C207.71 51.5068 207.661 51.7727 207.552 52.0169C207.443 52.2612 207.278 52.477 207.071 52.6475C206.572 53.0121 205.961 53.1931 205.342 53.1591H195.665V58.9361C195.636 59.4241 195.791 59.9055 196.1 60.2869C196.251 60.4499 196.437 60.578 196.643 60.662C196.85 60.746 197.073 60.7839 197.296 60.7731H209.061C209.819 60.7731 210.401 60.9436 210.809 61.2847C211.014 61.4647 211.175 61.6883 211.28 61.9387C211.385 62.189 211.431 62.4597 211.414 62.7303C211.428 62.9965 211.378 63.2622 211.27 63.5064C211.162 63.7506 210.998 63.9666 210.791 64.1374C210.292 64.5011 209.68 64.682 209.061 64.6491H196.69C194.766 64.6491 193.274 64.1493 192.212 63.1498" fill="white"/>
<path d="M216.045 43.9155C216.045 42.1656 216.558 40.8011 217.583 39.822C218.608 38.843 220.031 38.3552 221.852 38.3586H228.608C232.377 38.3586 235.224 39.0843 237.15 40.5358C239.076 41.9873 240.037 44.1543 240.031 47.0368C240.031 49.7129 239.228 51.8015 237.621 53.3024C236.015 54.8034 233.858 55.553 231.15 55.5513L236.92 61.2157C237.133 61.4122 237.304 61.6497 237.422 61.9136C237.539 62.1775 237.601 62.4624 237.603 62.7507C237.599 63.0558 237.525 63.356 237.387 63.6289C237.249 63.9017 237.05 64.1403 236.806 64.3267C236.349 64.7139 235.774 64.9382 235.173 64.9638C234.439 64.9638 233.769 64.6388 233.161 63.989L224.963 55.6997H221.093V62.7456C221.108 63.0573 221.051 63.3682 220.926 63.6547C220.801 63.9411 220.611 64.1955 220.371 64.3983C219.86 64.807 219.216 65.0196 218.559 64.997C217.901 65.028 217.254 64.8145 216.747 64.3983C216.517 64.1894 216.337 63.933 216.219 63.6473C216.101 63.3617 216.048 63.0538 216.064 62.7456L216.045 43.9155ZM228.445 51.8313C230.115 51.8313 231.418 51.6684 232.354 51.3427C233.186 51.0991 233.897 50.5572 234.347 49.823C234.74 49.1407 234.936 48.2094 234.934 47.0291C234.934 45.3235 234.41 44.098 233.361 43.3527C232.311 42.6073 230.672 42.2329 228.442 42.2295H222.724C222.501 42.2186 222.278 42.2565 222.071 42.3406C221.864 42.4246 221.679 42.5526 221.528 42.7156C221.219 43.0971 221.064 43.5785 221.093 44.0665V51.8313H228.445Z" fill="white"/>
<path d="M250.507 63.7792C248.398 63.0073 246.472 61.8132 244.851 60.2716C244.673 60.1082 244.53 59.9104 244.432 59.6904C244.334 59.4703 244.283 59.2328 244.282 58.9924C244.295 58.6928 244.368 58.3988 244.499 58.1281C244.629 57.8573 244.813 57.6152 245.04 57.4164C245.209 57.233 245.414 57.0853 245.642 56.9824C245.87 56.8795 246.117 56.8235 246.368 56.8177C246.876 56.8177 247.48 57.1051 248.18 57.6799C249.411 58.7789 250.849 59.6267 252.413 60.1744C254.035 60.7611 255.75 61.0599 257.478 61.0571C259.147 61.0571 260.45 60.7756 261.387 60.2128C261.82 59.9819 262.181 59.6374 262.429 59.2171C262.677 58.7969 262.803 58.3172 262.793 57.8309C262.793 56.7563 262.286 55.8873 261.273 55.2238C260.26 54.5603 258.541 53.9634 256.114 53.4329C252.293 52.6091 249.516 51.5218 247.782 50.1709C246.047 48.8201 245.184 47.082 245.193 44.9568C245.185 43.6255 245.672 42.3376 246.56 41.3366C247.471 40.2757 248.742 39.4502 250.373 38.8601C252.173 38.2466 254.068 37.9487 255.972 37.98C258.122 37.9426 260.259 38.3314 262.254 39.1236C264.087 39.886 265.484 40.9546 266.445 42.3293C266.731 42.727 266.902 43.1939 266.94 43.6802C266.919 44.0034 266.823 44.3175 266.658 44.5977C266.494 44.8778 266.266 45.1164 265.992 45.2945C265.657 45.5211 265.259 45.6392 264.853 45.6322C264.482 45.64 264.114 45.5628 263.778 45.4066C263.442 45.2503 263.148 45.0193 262.917 44.7317C262.124 43.8148 261.114 43.1056 259.976 42.667C258.704 42.1592 257.344 41.9045 255.972 41.9174C254.175 41.9174 252.778 42.186 251.778 42.7233C250.779 43.2631 250.277 44.0025 250.277 44.9568C250.277 45.9111 250.766 46.6889 251.739 47.3004C252.713 47.9118 254.403 48.4951 256.805 49.0452C259.463 49.6695 261.601 50.3756 263.22 51.1636C264.839 51.9516 266.022 52.8829 266.769 53.9574C267.536 55.1015 267.927 56.4514 267.89 57.8232C267.909 59.189 267.452 60.5196 266.595 61.5918C265.64 62.7476 264.378 63.6175 262.951 64.1042C261.198 64.7236 259.347 65.0227 257.486 64.9868C255.101 65.0044 252.732 64.5917 250.497 63.769" fill="white"/>
<path d="M274.113 63.1217C273.048 62.1205 272.517 60.7202 272.519 58.9207V43.9155C272.519 42.1656 273.031 40.8011 274.056 39.822C275.081 38.843 276.504 38.3552 278.325 38.3586H290.129C290.886 38.3586 291.468 38.5292 291.874 38.8703C292.079 39.05 292.241 39.2735 292.346 39.5239C292.451 39.7743 292.498 40.0451 292.482 40.3158C292.495 40.5824 292.446 40.8484 292.337 41.0927C292.228 41.337 292.063 41.5528 291.855 41.7229C291.358 42.0876 290.747 42.2686 290.129 42.2346H279.197C278.974 42.2234 278.752 42.2612 278.545 42.3452C278.339 42.4293 278.154 42.5575 278.004 42.7207C277.692 43.1012 277.536 43.5831 277.566 44.0716V49.2857H287.245C288.003 49.2857 288.584 49.4562 288.99 49.7974C289.195 49.9768 289.356 50.1998 289.462 50.4498C289.567 50.6997 289.614 50.97 289.598 51.2403C289.611 51.5068 289.562 51.7727 289.453 52.0169C289.344 52.2612 289.179 52.477 288.972 52.6475C288.474 53.0121 287.863 53.1932 287.245 53.1591H277.566V58.9361C277.536 59.4246 277.692 59.9064 278.004 60.2869C278.154 60.4501 278.339 60.5784 278.545 60.6625C278.752 60.7465 278.974 60.7843 279.197 60.7731H290.965C291.723 60.7731 292.304 60.9436 292.71 61.2847C292.915 61.4644 293.077 61.6879 293.182 61.9383C293.287 62.1887 293.334 62.4595 293.318 62.7303C293.331 62.9967 293.281 63.2626 293.172 63.5068C293.064 63.751 292.899 63.9668 292.691 64.1374C292.194 64.5011 291.583 64.682 290.965 64.6491H278.591C276.667 64.6491 275.174 64.1493 274.113 63.1498" fill="white"/>
</g>
<defs>
<linearGradient id="paint0_linear_101_5015" x1="0.000178786" y1="18.6099" x2="37.2462" y2="18.6099" gradientUnits="userSpaceOnUse">
<stop stop-color="#6E55F2"/>
<stop offset="0.8" stop-color="#617DF8"/>
<stop offset="1" stop-color="#5E88FA"/>
</linearGradient>
<linearGradient id="paint1_linear_101_5015" x1="20.0804" y1="48.1819" x2="55.5804" y2="27.6862" gradientUnits="userSpaceOnUse">
<stop stop-color="#37FFFE"/>
<stop offset="0.46" stop-color="#3FD6FA"/>
<stop offset="1" stop-color="#4AA2F7"/>
</linearGradient>
<clipPath id="clip0_101_5015">
<rect width="293" height="65" fill="white"/>
</clipPath>
</defs>
</svg>

<svg xmlns="http://www.w3.org/2000/svg" width="293" height="65" fill="none" viewBox="0 0 293 65"><g clip-path="url(#a)"><path fill="url(#b)" d="M37.053 30.394c1.086 4.024-2.592 7.713-6.62 6.64L17.23 33.52 4.026 30.004c-4.028-1.072-5.386-6.102-2.444-9.053l9.646-9.677 9.648-9.68c2.942-2.95 7.976-1.61 9.061 2.413L33.495 17.2l3.558 13.192z"/><path fill="#5793f9" d="m42.878 43.08-5.399 5.4 5.4 5.399 5.398-5.399zm-.018 10.784-5.4 5.399 5.4 5.399 5.399-5.4z"/><path fill="#5793f9" d="m42.869 53.875-5.4 5.399 5.4 5.399 5.399-5.4zm10.789-.01-5.399 5.399 5.4 5.399 5.398-5.4z"/><path fill="url(#c)" d="m64.46 43.063-5.4-5.4-5.402 5.4.008.008-5.39-5.39 5.394-5.396a5.4 5.4 0 0 0-2.41-1.383l-13.2-3.536-13.198-3.537c-4.025-1.078-7.709 2.606-6.631 6.63l3.537 13.2 3.536 13.197c.26.968.75 1.776 1.383 2.411l-.011.012 5.4 5.4 5.4-5.4-5.4-5.401 10.8-10.8 5.4 5.401 5.4-5.4 5.384 5.383z"/><path fill="#88fcff" d="m32.066 43.13-5.399 5.398 5.399 5.4 5.4-5.4z"/><path fill="#085dff" d="m37.053 30.394-.958-3.554-11.23-3.01c-4.025-1.077-7.709 2.607-6.631 6.632l.96 3.581 11.24 2.992c4.027 1.072 7.704-2.617 6.619-6.64" opacity=".33"/><path fill="#fff" d="M75.459 63.46a3.8 3.8 0 0 1-1.063-1.374 3.8 3.8 0 0 1-.34-1.697 5.2 5.2 0 0 1 .57-2.494q.568-1.072 2.2-2.27l14.923-11.147c.268-.187.505-.415.701-.675a1.2 1.2 0 0 0 .21-.711q0-.862-1.328-.862h-13.89a3.36 3.36 0 0 1-1.88-.512 1.6 1.6 0 0 1-.58-.6 1.6 1.6 0 0 1-.196-.807 1.6 1.6 0 0 1 .184-.823c.133-.253.331-.468.574-.623a3.35 3.35 0 0 1 1.898-.512H92.51q2.466 0 3.852 1.108t1.385 3.132a5.14 5.14 0 0 1-.57 2.558q-.57 1.023-2.2 2.213L80.06 58.506a3 3 0 0 0-.704.694c-.142.23-.214.497-.207.767q-.001.79 1.784.788H95.39a3.4 3.4 0 0 1 1.88.512c.243.146.443.353.58.6s.204.526.196.807a1.62 1.62 0 0 1-.759 1.443 3.35 3.35 0 0 1-1.897.512H79.3q-2.427 0-3.834-1.162m32.433-.177a11.6 11.6 0 0 1-4.877-4.763q-1.677-3.048-1.677-7.033 0-3.987 1.669-7.033a11.64 11.64 0 0 1 4.877-4.764q3.207-1.707 7.647-1.707t7.647 1.707a11.64 11.64 0 0 1 4.877 4.764q1.671 3.069 1.672 7.033 0 3.963-1.672 7.033a11.63 11.63 0 0 1-4.877 4.764q-3.207 1.709-7.647 1.706-4.44-.002-7.647-1.706m14.364-4.803q2.392-2.558 2.392-6.994t-2.477-7.016q-2.49-2.558-7.002-2.558-4.142 0-6.433 2.607t-2.298 6.959q0 4.423 2.391 6.995t6.718 2.571q4.33 0 6.717-2.571m12.032 5.879a2.09 2.09 0 0 1-.683-1.65V49.58q0-5.437 3.15-8.514 3.15-3.078 8.768-3.07 3.681 0 6.375 1.386a9.56 9.56 0 0 1 4.119 4.014q1.421 2.625 1.423 6.19v13.129a2.07 2.07 0 0 1-.683 1.65 3.06 3.06 0 0 1-3.663-.018 2.08 2.08 0 0 1-.701-1.632V56.6h-13.741v6.115a2.06 2.06 0 0 1-.701 1.632 3.06 3.06 0 0 1-1.828.617 3.06 3.06 0 0 1-1.835-.599M152.4 52.737v-3.27q0-3.75-1.73-5.646-1.728-1.896-5.14-1.901-6.871 0-6.871 7.54v3.264zm16.282 10.441q-1.747-1.82-3.075-6.02l-5.276-16.581a3 3 0 0 1-.153-.937q0-1.65 2.353-1.65c.777 0 1.385.149 1.812.45.465.373.792.886.93 1.461l5.236 16.886q.727 2.274 1.323 3.298.596 1.023 1.25 1.01.646 0 1.253-1.01t1.328-3.303l5.237-16.886a2.67 2.67 0 0 1 .932-1.46c.417-.303 1.017-.45 1.812-.45q2.353 0 2.353 1.65c.001.317-.049.634-.15.936l-5.291 16.586q-1.329 4.203-3.076 6.02a6.2 6.2 0 0 1-2.015 1.345 6.25 6.25 0 0 1-4.77 0 6.2 6.2 0 0 1-2.016-1.345m23.525-.056q-1.594-1.502-1.594-4.201V43.916q0-2.625 1.537-4.094 1.538-1.469 4.269-1.463h11.804q1.139 0 1.745.511a1.8 1.8 0 0 1 .608 1.446 1.71 1.71 0 0 1-.626 1.407 2.68 2.68 0 0 1-1.727.512h-10.924a1.54 1.54 0 0 0-1.196.486 1.96 1.96 0 0 0-.435 1.35v5.215h9.677q1.141 0 1.747.511a1.77 1.77 0 0 1 .608 1.443 1.7 1.7 0 0 1-.626 1.407 2.68 2.68 0 0 1-1.729.512h-9.677v5.777c-.029.488.126.97.435 1.35a1.53 1.53 0 0 0 1.196.487h11.765q1.137 0 1.748.512a1.79 1.79 0 0 1 .605 1.445 1.72 1.72 0 0 1-.623 1.407 2.7 2.7 0 0 1-1.73.512H196.69q-2.885 0-4.478-1.5m23.833-19.233q0-2.625 1.538-4.094t4.269-1.463h6.756q5.653 0 8.542 2.177t2.881 6.5q0 4.015-2.41 6.266-2.409 2.251-6.471 2.25l5.77 5.664a2.1 2.1 0 0 1 .683 1.535 2 2 0 0 1-.216.878 2 2 0 0 1-.581.698 2.7 2.7 0 0 1-1.633.637q-1.1 0-2.012-.975l-8.198-8.29h-3.87v7.047a2.03 2.03 0 0 1-.722 1.652 2.75 2.75 0 0 1-1.812.599 2.66 2.66 0 0 1-1.812-.599 2.1 2.1 0 0 1-.683-1.652zm12.4 7.915q2.505 0 3.909-.488a3.48 3.48 0 0 0 1.993-1.52q.59-1.023.587-2.794 0-2.559-1.573-3.676-1.575-1.119-4.919-1.123h-5.718a1.54 1.54 0 0 0-1.196.486 1.96 1.96 0 0 0-.435 1.35v7.765zm22.062 11.949a16.4 16.4 0 0 1-5.656-3.508 1.73 1.73 0 0 1-.569-1.28 2.23 2.23 0 0 1 .758-1.576 1.86 1.86 0 0 1 1.328-.598q.762 0 1.812.862a12.6 12.6 0 0 0 4.233 2.494c1.622.587 3.337.886 5.065.883q2.503 0 3.909-.844c.433-.231.794-.576 1.042-.996s.374-.9.364-1.386q0-1.613-1.52-2.607-1.519-.995-5.159-1.791-5.731-1.236-8.332-3.262-2.603-2.026-2.589-5.214a5.4 5.4 0 0 1 1.367-3.62q1.367-1.592 3.813-2.477c1.8-.613 3.695-.911 5.599-.88 2.15-.037 4.287.351 6.282 1.144q2.75 1.143 4.191 3.205c.286.398.457.865.495 1.351a2.1 2.1 0 0 1-.948 1.614 1.97 1.97 0 0 1-1.139.338 2.4 2.4 0 0 1-1.936-.9 7.4 7.4 0 0 0-2.941-2.065 10.5 10.5 0 0 0-4.004-.75q-2.695 0-4.194.806c-.999.54-1.501 1.28-1.501 2.234s.489 1.732 1.462 2.343q1.462.919 5.066 1.745 3.987.936 6.415 2.119 2.429 1.182 3.549 2.793a6.6 6.6 0 0 1 1.121 3.866 5.9 5.9 0 0 1-1.295 3.769 8.13 8.13 0 0 1-3.644 2.512 15.5 15.5 0 0 1-5.465.883 19.8 19.8 0 0 1-6.989-1.218m23.616-.647q-1.597-1.502-1.594-4.201V43.916q0-2.625 1.537-4.094t4.269-1.463h11.804q1.136 0 1.745.511a1.8 1.8 0 0 1 .608 1.446 1.7 1.7 0 0 1-.627 1.407 2.67 2.67 0 0 1-1.726.512h-10.932a1.53 1.53 0 0 0-1.193.486 1.94 1.94 0 0 0-.438 1.35v5.215h9.679q1.136 0 1.745.511a1.77 1.77 0 0 1 .608 1.443 1.7 1.7 0 0 1-.626 1.407 2.68 2.68 0 0 1-1.727.512h-9.679v5.777c-.03.489.126.97.438 1.35a1.51 1.51 0 0 0 1.193.487h11.768q1.137 0 1.745.512a1.8 1.8 0 0 1 .608 1.445 1.71 1.71 0 0 1-.627 1.407 2.68 2.68 0 0 1-1.726.512h-12.374q-2.886 0-4.478-1.5"/></g><defs><linearGradient id="b" x1="0" x2="37.246" y1="18.61" y2="18.61" gradientUnits="userSpaceOnUse"><stop stop-color="#6e55f2"/><stop offset=".8" stop-color="#617df8"/><stop offset="1" stop-color="#5e88fa"/></linearGradient><linearGradient id="c" x1="20.08" x2="55.58" y1="48.182" y2="27.686" gradientUnits="userSpaceOnUse"><stop stop-color="#37fffe"/><stop offset=".46" stop-color="#3fd6fa"/><stop offset="1" stop-color="#4aa2f7"/></linearGradient><clipPath id="a"><path fill="#fff" d="M0 0h293v65H0z"/></clipPath></defs></svg>
